svg/thermometer.svg

<svg xmlns="http://www.w3.org/2000/svg" viewBox="0 0 24 24"><path d="M15 13V5a3 3 0 0 0-6 0v8a5 5 0 1 0 6 0m-3-9a1 1 0 0 1 1 1v3h-2V5a1 1 0 0 1 1-1"/></svg>

<?xml version="1.0" encoding="UTF-8"?><!DOCTYPE svg PUBLIC "-//W3C//DTD SVG 1.1//EN" "http://www.w3.org/Graphics/SVG/1.1/DTD/svg11.dtd"><svg xmlns="http://www.w3.org/2000/svg" xmlns:xlink="http://www.w3.org/1999/xlink" version="1.1" id="mdi-thermometer" width="24" height="24" viewBox="0 0 24 24"><path d="M15 13V5A3 3 0 0 0 9 5V13A5 5 0 1 0 15 13M12 4A1 1 0 0 1 13 5V8H11V5A1 1 0 0 1 12 4Z" /></svg>
